X:219
T: Kein groesser Leiden als Scheiden
N: A0266
O: Europa, Mitteleuropa, Deutschland
N: Hainhofers Lautenbuch I Hs. von 1603.
R: Romanze, Ballade, Lied
M: 4/2
L: 1/4
K: G
G2G2G2 | F2_B2A2G2 | F2z
FFDEF | G2G2E2F2 | G4z2
A_B | c2_B2A2c2 | =F2A2_B2
B2 | A2G2F2z
F | FDEFG2G2 | E2F2G4 | z2

@@@ Tune index: 219
